static/img/driftctl_dark.svg

<svg viewBox="0 0 1490.92 1207.41" xmlns="http://www.w3.org/2000/svg"><path d="m450.87 700.16c48.21-154.42 192.33-266.49 362.63-266.49s314.42 112.07 362.63 266.49h230.41c-53-279.23-298.37-490.36-593-490.36s-540 211.13-593 490.36z" fill="#71b3c3" transform="translate(-68.04 -209.8)"/><path d="m1176.13 926.84c-48.21 154.42-192.33 266.49-362.63 266.49s-314.42-112.07-362.63-266.49h-230.4c53 279.23 298.36 490.36 593 490.36s540-211.13 593-490.36z" fill="#71b3c3" transform="translate(-68.04 -209.8)"/><path d="m0 482.77h1490.92v241.88h-1490.92z" fill="#fff"/><path d="m19 501.77h852.03v203.88h-852.03z"/><g transform="translate(-68.04 -209.8)"><path d="m1015.32 875.71c-22.39 0-37.84-15-37.84-37.61 0-22.81 15.67-38 38.44-38 10.28 0 19 4.06 27.52 11.06l10.37-13.62c-8.74-8.49-21.75-15.18-38.83-15.18-32.17 0-59.59 20.26-59.59 55.7 0 35.08 25 55.34 58.19 55.34a64.53 64.53 0 0 0 42.41-16.3l-9.27-13.88c-8.42 6.88-18.85 12.49-31.4 12.49z"/><path d="m1152.93 876c-19.15 0-25.59-8.81-25.59-27v-46.78h49.94v-17.22h-49.94v-33.55h-17.9l-2.82 33.55-30 1.12v16.1h29.16v46.78c0 26.56 10.53 44.47 42.18 44.47 13.5 0 24-2.85 33.5-6.16l-4.39-15.76a67.72 67.72 0 0 1 -24.14 4.45z"/><path d="m1281 871.26c-7 3-13.16 4.45-18.94 4.45-11.63 0-20-5.94-20-20.62v-117.84h-58v17.23h36.38v99.31c0 25.52 12.79 39.65 36.49 39.65 12 0 19.06-2.16 29.17-6.16z"/><path d="m418 776.75 1 18.59h-.52c-8.79-8.16-18.09-12.94-30.45-12.94-24.51 0-47.21 21.23-47.21 55.7 0 35.09 18.11 55.34 45.45 55.34 12.56 0 24.76-7.13 33.23-15.73h.69l1.72 13.13h17.64v-153.59h-21.55zm0 84.56c-8.35 9.59-17.12 14.14-26.71 14.14-17.66 0-28.35-13.53-28.35-37.61 0-23.11 13.52-37.45 30-37.45 8.37 0 16.48 2.89 25 10.84z" fill="#fff"/><path d="m496.88 809.55h-.52l-1.93-24.55h-17.86v105.84h21.58v-60.06c11.71-21.37 26.34-29.1 41.5-29.1 8.15 0 12.17 1.08 19.38 3.38l4.72-18.33c-6.42-3.13-12.55-4.33-20.75-4.33-18.89 0-35.2 9.91-46.12 27.15z" fill="#fff"/><path d="m644.66 733.56c-9.29 0-16.08 6.28-16.08 15.4 0 9.29 6.79 15.32 16.08 15.32s16.07-6 16.07-15.32c0-9.12-6.79-15.4-16.07-15.4z" fill="#fff"/></g><path d="m520.24 592.43h47.33v88.62h21.58v-105.85h-68.91z" fill="#fff"/><path d="m725.05 777.69v7.31l-29.67 1.1v16.1h29.67v88.62h21.4v-88.6h42.16v-17.22h-42.16v-7.83c0-15.89 7.3-25.29 24.81-25.29a58.07 58.07 0 0 1 24 4.78l4.64-16a83.66 83.66 0 0 0 -30.9-6c-30.28-.01-43.95 17.71-43.95 43.03z" fill="#fff" transform="translate(-68.04 -209.8)"/><path d="m912.4 871.52a67.72 67.72 0 0 1 -24.12 4.48c-19.15 0-25.59-8.81-25.59-27v-46.78h49.94v-17.22h-49.94v-33.55h-17.9l-2.79 33.55-30 1.12v16.1h29.17v46.78c0 26.56 10.53 44.47 42.18 44.47 13.5 0 24-2.85 33.5-6.16z" fill="#fff" transform="translate(-68.04 -209.8)"/></svg>

<svg id="design" xmlns="http://www.w3.org/2000/svg" viewBox="0 0 1490.92 1207.41"><defs><style>.cls-1{fill:#71b3c3;}.cls-2{fill:#293d42;}.cls-3{fill:#fff;}</style></defs><path class="cls-1" d="M450.87,700.16C499.08,545.74,643.2,433.67,813.5,433.67s314.42,112.07,362.63,266.49h230.41c-53-279.23-298.37-490.36-593-490.36s-540,211.13-593,490.36Z" transform="translate(-68.04 -209.8)"/><path class="cls-1" d="M1176.13,926.84c-48.21,154.42-192.33,266.49-362.63,266.49S499.08,1081.26,450.87,926.84H220.47c53,279.23,298.36,490.36,593,490.36s540-211.13,593-490.36Z" transform="translate(-68.04 -209.8)"/><rect class="cls-2" y="482.77" width="1490.92" height="241.88"/><rect class="cls-3" x="19" y="501.77" width="852.03" height="203.88"/><g id="driftctl"><g id="ctl"><path class="cls-3" d="M1015.32,875.71c-22.39,0-37.84-15-37.84-37.61,0-22.81,15.67-38,38.44-38,10.28,0,19,4.06,27.52,11.06l10.37-13.62c-8.74-8.49-21.75-15.18-38.83-15.18-32.17,0-59.59,20.26-59.59,55.7,0,35.08,25,55.34,58.19,55.34a64.53,64.53,0,0,0,42.41-16.3l-9.27-13.88C1038.3,870.1,1027.87,875.71,1015.32,875.71Z" transform="translate(-68.04 -209.8)"/><path class="cls-3" d="M1152.93,876c-19.15,0-25.59-8.81-25.59-27V802.22h49.94V785h-49.94V751.45h-17.9L1106.62,785l-30,1.12v16.1h29.16V849c0,26.56,10.53,44.47,42.18,44.47,13.5,0,24-2.85,33.5-6.16l-4.39-15.76A67.72,67.72,0,0,1,1152.93,876Z" transform="translate(-68.04 -209.8)"/><path class="cls-3" d="M1281,871.26c-7,3-13.16,4.45-18.94,4.45-11.63,0-20-5.94-20-20.62V737.25h-58v17.23h36.38v99.31c0,25.52,12.79,39.65,36.49,39.65,12,0,19.06-2.16,29.17-6.16Z" transform="translate(-68.04 -209.8)"/></g><g id="drift"><path class="cls-2" d="M418,776.75l1,18.59h-.52c-8.79-8.16-18.09-12.94-30.45-12.94-24.51,0-47.21,21.23-47.21,55.7,0,35.09,18.11,55.34,45.45,55.34,12.56,0,24.76-7.13,33.23-15.73h.69l1.72,13.13h17.64V737.25H418Zm0,84.56c-8.35,9.59-17.12,14.14-26.71,14.14-17.66,0-28.35-13.53-28.35-37.61,0-23.11,13.52-37.45,30-37.45,8.37,0,16.48,2.89,25,10.84Z" transform="translate(-68.04 -209.8)"/><path class="cls-2" d="M496.88,809.55h-.52L494.43,785H476.57V890.84h21.58V830.78c11.71-21.37,26.34-29.1,41.5-29.1,8.15,0,12.17,1.08,19.38,3.38l4.72-18.33c-6.42-3.13-12.55-4.33-20.75-4.33C524.11,782.4,507.8,792.31,496.88,809.55Z" transform="translate(-68.04 -209.8)"/><path class="cls-2" d="M644.66,733.56c-9.29,0-16.08,6.28-16.08,15.4,0,9.29,6.79,15.32,16.08,15.32s16.07-6,16.07-15.32C660.73,739.84,653.94,733.56,644.66,733.56Z" transform="translate(-68.04 -209.8)"/><polygon class="cls-2" points="520.24 592.43 567.57 592.43 567.57 681.05 589.15 681.05 589.15 575.2 520.24 575.2 520.24 592.43"/><path class="cls-2" d="M725.05,777.69V785l-29.67,1.1v16.1h29.67v88.62h21.4V802.22h42.16V785H746.45v-7.83c0-15.89,7.3-25.29,24.81-25.29a58.07,58.07,0,0,1,24,4.78l4.64-16a83.66,83.66,0,0,0-30.9-6C738.72,734.65,725.05,752.37,725.05,777.69Z" transform="translate(-68.04 -209.8)"/><path class="cls-2" d="M912.4,871.52A67.72,67.72,0,0,1,888.28,876c-19.15,0-25.59-8.81-25.59-27V802.22h49.94V785H862.69V751.45h-17.9L842,785l-30,1.12v16.1h29.17V849c0,26.56,10.53,44.47,42.18,44.47,13.5,0,24-2.85,33.5-6.16Z" transform="translate(-68.04 -209.8)"/></g></g></svg>
